!!!!SEGMENT: pl-kc--40102-iii-1-saf--002-006_zielenski-mikolaj--communiones-totius-anni-in-festo-s-catherinae-virginis-et-martyris-confundantur-superbi.krn
!!!cenid: 16xx:1537
!!!COM: Zieleński, Mikołaj
!!!COM-rismID: pe30013481
!!!CDT: <1611->1611
!!!CNT: Polish
!!!GTL: Communiones totius anni
!!!OTL: In festo S. Catherinae Virginis et Martyris/Confundantur superbi
!!!OMV: 006
!!!PDT: 1611
!!!AGN:
!!!SMS-siglum: PL-Kc
!!!SMS-shelfmark: 40102 III/1 Saf.
!!!SMS-shelfwork: 002-006 G
!!!SMS-variant:
!!!SMS-altvar:
!!!NIFC-rismSourceID: 990069887
!!!NIFC-rismChildID: 990069887
!!!NIFC-islandoraID:
!!!URL-pdf-islandora:
!!!URL-scan: https://cyfrowe.mnk.pl/dlibra/publication/24235/edition/23926/content?ref=desc @EN{Scan on The National Museum in Krakow Website} @PL{Skany w portalu Biblioteka Cyfrowa Muzeum Narodowego w Krakowie}
!!!ONB-nifc: UWAGA: str. 48-49. Uwaga: W xml metrum 2/1 do źródłowego C| i odpowiednio 3/1 do 3/2
!!!AIN: 4 organ
!!!key:
**kern	**kern	**kern	**kern
*part4	*part3	*part2	*part1
*staff4	*staff3	*staff2	*staff1
*Iorgan	*Iorgan	*Iorgan	*Iorgan
*I"Organo	*I"Organo	*I"Organo	*I"Organo
*	*	*	*I'org
*clefF3	*clefC3	*clefC2	*clefG2
*k[]	*k[]	*k[]	*k[]
*C:	*C:	*C:	*C:
*M2/1	*M2/1	*M2/1	*M2/1
*met(c|)	*met(c|)	*met(c|)	*
=1	=1	=1	=1
!	!	!	!LO:TX:b:t=Confudantur ſuperbi.
!	!	!	!LO:TX:a:t=In feſto S.Catherinae Virginis, & Matyris.   Solus[ Cantus canet.
*	*	*	*met(c|)
1.G\	2.g\	0r	0r
.	8f\	.	.
.	8e\	.	.
.	4d\	.	.
.	4e\	.	.
2D/	2f#X\	.	.
=2	=2	=2	=2
2E/	2g\	1r	1r
2C/	2e\	.	.
2G\	4d\	2.g\	1.dd\
.	4c/	.	.
[>2GG/	4B/	.	.
.	4A/	8f\	.
.	.	8e\	.
=3	=3	=3	=3
2GG/]	4B/	4d/	.
.	4G/	4e/	.
2D/	2A/	2f#X\	2a/
2AA/	2.d\	2.g\	1b\
2.G\	.	.	.
.	4d\	4g\	.
=4	=4	=4	=4
.	2c\	2f#X\	1a/
8F#X/	.	.	.
8E/	.	.	.
2F#/	2A/	2a\	.
4G\	2.B/	2d/	1r
4F#/	.	.	.
4E/	.	2g\	.
4D/	4B/	.	.
=5	=5	=5	=5
2C/	4c/	4g\	1.gg\
.	4d\	4f\	.
2.c\	2.e\	4e/	.
.	.	4d/	.
.	.	2c/	.
8B\	4f\	.	.
8A\	.	.	.
2B\	2.g\	2d/	2dd\
=6	=6	=6	=6
2c\	.	2c/	1ee\
.	4f\	.	.
2C/	4e\	4g\	.
.	8d\	4a\	.
.	8c\	.	.
2.G\	4d\	4b\	2dd\
.	4c/	4a\	.
.	4B/	2.b\	2.gg\
4F/	4A/	.	.
=7	=7	=7	=7
4E/	2G/	.	.
4D/	.	4b\	4ff\
2D/	2.g\	1cc\	4ee\
.	.	.	4ff\
2.C/	.	.	4ee\
.	4f\	.	4dd\
.	2e\	2g\	2.cc\
2c\	.	.	.
=8	=8	=8	=8
.	1d\	1g\	.
4A\	.	.	8b/
.	.	.	8a/
2D/	.	.	2b/
2A\	2.e\	2g\	1cc\
4.E/	.	2e/	.
.	4c/	.	.
8F/	.	.	.
=9	=9	=9	=9
2G\	4G/	4g\	1r
.	2c/	4a\	.
4.D/	.	2f\	.
.	4B/	.	.
8E/	.	.	.
2.C/	2.c/	2e/	2r
.	.	2.g\	2ee\
2c\	2e\	.	.
=10	=10	=10	=10
.	.	.	4gg\
4A\	4e\	4cc\	4aa\
2D/	2d\	2a\	2ff\
2A\	2.c/	2a\	2ee\
4.E/	.	2g\	4r
.	8B/	.	4.gg\
8F/	8A/	.	.
=11	=11	=11	=11
2G\	4.B/	2d/	.
.	.	.	8gg\
.	.	.	4dd\
.	8c/	.	.
4.D/	4d\	2.a\	2ff\
.	4.A/	.	.
8E/	.	.	.
2F/	.	.	2cc\
.	8B/	.	.
.	2c/	4a\	.
2C/	.	2.g\	4r
.	4c/	.	4.ee\
=12	=12	=12	=12
2.G\	2B/	.	.
.	.	.	8ee\
.	.	4d/	4b/
.	2B/	2.f\	2dd\
4G\	.	.	.
2F/	2.c/	.	2a/
.	.	8e/	.
.	.	8d/	.
2A\	.	4d/	2cc\
.	4c/	4f#X\	.
=13	=13	=13	=13
2.G\	1d\	1.g\	2cc\
.	.	.	2b/
4F/	.	.	.
4E/	2G/	.	1ee\
4D/	.	.	.
2C/	2.c/	2g\	.
=14	=14	=14	=14
2.G\	.	1g\	1dd\
.	8B/	.	.
.	8A/	.	.
.	4B/	.	.
4A\	4c/	.	.
4B\	2d\	2r	2r
4G\	.	.	.
2c\	2e\	2e/	2g/
=15	=15	=15	=15
2G\	2d\	2.g\	2b/
2C/	2e\	.	2.cc\
.	.	4a\	.
1D/	2.d\	4f#X\	.
.	.	2g\	4b/
.	.	.	2a/
.	4c/	4f#X\	.
=16	=16	=16	=16
2E/	2B/	2g\	2g/
2.C/	2e\	2g\	4r
.	.	.	4cc\
.	2g\	2cc\	2ee\
4c\	.	.	.
2F/	2a\	2cc\	2ff\
=17	=17	=17	=17
2c\	1g\	1cc\	2.ee\
2C/	.	.	.
.	.	.	2gg\
2.c\	1e\	1.g\	.
.	.	.	4gg\
.	.	.	4gg\
4d\	.	.	4ff\
=18	=18	=18	=18
4c\	2.e\	.	4ee\
4B\	.	.	4g/
2.A\	.	1a\	4cc\
.	4d\	.	4dd\
.	4c/	.	4ee\
8G\	8B/	.	4ff\
8F\	8A/	.	.
*	*custos:B	*custos:g	*custos:dd
4E/	2.B/	2.g\	2.gg\
*custos:G	*	*	*
4F/	.	.	.
!!LO:PB:g=original
=19	=19	=19	=19
2G\	.	.	.
.	4B/	4g\	4dd\
2D/	2d\	4a\	2ff\
.	.	4b\	.
2A\	2.e\	2cc\	2.ee\
2c\	.	2g\	.
.	4e\	.	4gg\
=20	=20	=20	=20
2.G\	2d\	2.b\	2gg\
.	2.d\	.	4dd\
4D/	.	2a\	2ff\
2F/	.	.	.
.	4A/	4a\	4cc\
2C/	2c/	2g\	2ee\
=21	=21	=21	=21
2.G\	4d\	1.g\	4.b/
.	4c/	.	.
.	.	.	8b/
.	4B/	.	4dd\
4F/	4A/	.	4dd\
2E/	2.B/	.	2g/
2BB/	.	2g\	2dd\
.	4d\	.	.
=22	=22	=22	=22
2C/	2e\	2g\	2cc\
2D/	2d\	1f\	2b/
2F/	2c/	.	4a/
.	.	.	4a/
2G\	2B/	2.d/	2.b/
=23	=23	=23	=23
1E/	1G/	.	.
.	.	8c#X/	4a/
.	.	8B/	.
.	.	2c#/	4g/
.	.	.	2gg\
1D/	1A/	1d/	.
.	.	.	8ff#X\
.	.	.	8ee\
.	.	.	2ff#\
=24	=24	=24	=24
1G\	2B/	1d/	1gg\
.	2g\	.	.
1r	4d\	4r	1r
.	4d\	4dd\	.
.	2f\	4a\	.
.	.	4a\	.
=25	=25	=25	=25
2r	2.e\	2cc\	1r
2G\	.	2b\	.
.	4d\	.	.
4D/	4f\	2a\	2r
4D/	4f\	.	.
4.E/	2e\	4.g\	4r
.	.	.	4dd\
8F/	.	8a\	.
=26	=26	=26	=26
2G\	2d\	4b\	2dd\
.	.	4b\	.
2D/	4r	2a\	2ff\
.	4d\	.	.
1r	4A/	2a\	2cc\
.	4A/	.	.
.	4.c/	2.g\	4r
.	.	.	4ee\
.	8d\	.	.
=27	=27	=27	=27
4r	4e\	.	4b/
4G\	4d\	4g\	4b/
4D/	4f\	1a\	2dd\
4D/	8F/	.	.
.	8G/	.	.
2F/	8A/	.	2a/
.	8B/	.	.
.	8c/	.	.
.	8d\	.	.
2.C/	2.e\	2g\	4r
.	.	.	4cc\
=28	=28	=28	=28
.	.	1g\	4g/
4c\	4e\	.	4g/
4G\	4d\	.	2b/
4G\	4e\	.	.
4d\	4f\	4r	1a/
4D/	4F/	4f\	.
4F/	4.A/	4c/	.
4F/	.	4c/	.
.	8B/	.	.
!!linebreak:original
=29	=29	=29	=29
2C/	2c/	4.e/	4r
.	.	.	4ee\
.	.	8f\	.
2G\	4r	2g\	4b/
.	4d\	.	4b/
2F/	4A/	2.a\	4cc\
.	4A/	.	4dd\
2C/	2.c/	.	2ee\
.	.	4g\	.
=30	=30	=30	=30
!	!	!LO:TX:a:t=P:problem=# above	!
1D/	.	4f#X\	1dd\
.	4B/	2g\	.
.	2A/	.	.
!	!	!LO:TX:a:t=P:problem=# above	!
.	.	4f#X\	.
2.G\	2.B/	4g\	4r
.	.	4g\	2dd\
.	.	4d/	.
4G\	4B/	4d/	4a/
=31	=31	=31	=31
2F/	2c/	2f\	4a/
.	.	.	4a/
2F/	2A/	2.c/	2cc\
2.E/	2G/	.	2g/
.	.	4c/	.
.	2.G/	4e/	2.gg\
4D/	.	4f\	.
=32	=32	=32	=32
1C/	.	2g\	.
.	4G/	.	4ff\
.	4c/	2g\	4ee\
.	4B/	.	4dd\
2F/	4A/	2a\	2cc\
.	4B/	.	.
2F/	4c/	2a\	2cc\
.	4A/	.	.
=33	=33	=33	=33
2.G\	2.B/	2.d/	2b/
.	.	.	2dd\
4G\	4B/	4e/	.
2F/	2c/	4f\	2a/
.	.	4g\	.
2D/	2f\	2a\	2.dd\
=34	=34	=34	=34
2.E/	1e\	1g\	.
.	.	.	4cc\
.	.	.	2.cc\
4F/	.	.	.
1G\	1d\	1g\	.
.	.	.	8b/
.	.	.	8a/
.	.	.	2b/
=35	=35	=35	=35
2.C/	2e\	1.g\	2cc\
.	2.c/	.	2ee\
4D/	.	.	.
4E/	.	.	2gg\
4F/	8B/	.	.
.	8A/	.	.
2G\	4B/	2g\	2dd\
.	4c/	.	.
=36	=36	=36	=36
2D/	2d\	4.f\	2ff\
.	.	8g\	.
4F/	4A/	4a\	4cc\
4C/	2c/	4a\	4ee\
2E/	.	2g\	2ee\
.	4B/	.	.
2BB/	2d\	2g\	2dd\
=37	=37	=37	=37
00C/	2.e\	00g\	4cc\
.	.	.	4g/
.	.	.	4cc\
.	4d\	.	4dd\
.	2.c/	.	4ee\
.	.	.	4cc\
.	.	.	4ee\
.	4d\	.	4ff\
=38	=38	=38	=38
.	4e\	.	2.gg\
.	4f\	.	.
.	4e\	.	.
.	4c/	.	4ff\
!	!LO:TX:t=P:problem=4 poprawione znakiem na 2	!	!
.	2G/	.	2ee\
.	1c\	.	2cc\
=39	=39	=39	=39
00G\	.	00g\	00dd\
.	4B/	.	.
.	4A/	.	.
.	0.Bl/	.	.
==	==	==	==
*-	*-	*-	*-
!!!system-decoration: s1,s2,s3,s4
!!!RDF**kern: > = above
!!!RDF**kern: < = below
!!!RDF**kern: l = terminal long
!!!ENC: Filip Voros
!!!END: 2021-12-17
!!!ENC: Leszek Kubiak
!!!END: 2021-12-22
!!!YEC: Copyright 2022 Narodowy Instytut Fryderyka Chopina (https://polishscores.org)
!!!YEM: License CC-BY-4.0 (https://creativecommons.org/licenses/by/4.0)
